!!! OTL: Berkowitz287
!!! Chapter: 1
!!! Section: II
!!! Page: 68
!!! Mode: 
!!! Encoder: DJB
**kern
*staff1
*I"Piano
=1-
*clefC3
*k[b-]
*d:
*M4/4
4d\
4c\
4d\
4f\
=2
2a\
4g\
8a\L
8g\J
=3
4f\
4d\
4d\
4c\
=4
2.d\
4d\
=5
2g\
4a\
4cc\
=6
4.dd\
8cc\
4a\
4f\
=7
4a\
4cc\
4a\
4g\
=8
4f\
4d\
4.e\
8f\
=9
2g\
4f\
4g\
=10
!!linebreak:original
4.a\
8b-\
4a\
4g\
=11
4cc\
4a\
4g\
4d\
=12
4c\
4f\
4.e\
8c\
=13
1d
==
*-
